X:1
T:Title
%%score { ( 1 4 5 6 ) | ( 2 3 ) }
L:1/8
M:4/4
K:Ab
V:1 treble nm="Grand Piano"
V:4 treble 
V:5 treble 
V:6 treble 
V:2 bass 
V:3 bass 
V:1
 z4 z2[Q:1/4=100] [CE][CA] | [Ec]2 [Ec]2 [Fd][Ec][DB][CA] | [DB]4 [DF]2 [FB][Fc] | %3
 [Fd][Fd][DF][DF] [DG]2 [DB]2 | [CE]6 cd | e<c B>A c2 [=EA][EG] | %6
[M:9/8] [DF][DF][FB] [Fc] [Fd]2- [Fd][Fc][FB] |[M:4/4] A>A AA A2 G2 |[M:3/4] [CA]6 |[M:1/4] Bc | %10
[M:4/4] d>d dd dBFG | .[A,CF]2 .[A,CE]2 [Ec]2 [EA][Ec] | %12
 [=Dc]>[DB] [DB][Dc] [EB][B,EG][B,EG][CEA] | G2 F2 z4 | [CE]>[CA] [Ec][_Ge] [Ge]<[Gc] [EB][EA] | %15
[M:9/8] [FB]2 [Fc]- [Fc] [Fd]2- [Fd][F=d][Fd] | %16
[M:35/32] [Ee][EA][Ed][Ec]B/ F2- F/[Q:1/4=94](3:2:4d3/4-[Q:1/4=81]d/8c3/2-c/4[Q:1/4=97][Q:1/4=91][Q:1/4=88][Q:1/4=84][Q:1/4=78] | %17
[M:7/8] c2- c/4 z/4 z/ z z z2 |] %18
V:2
 z4 z2 [A,,A,][A,,A,] | [A,,A,]2 [A,,A,]2 [A,,A,][A,,A,][A,,A,][A,,A,] | %2
 [D,F,]4 [D,A,]2 [D,A,][C,=A,] | [B,,B,][B,,B,][B,,B,][B,,B,] [E,B,]2 [E,G,]2 | %4
 [A,,A,]6 [A,E][A,B,E] | [A,CE]<[A,E] [A,DE]>[A,CE] [A,E]2 [C,C][C,B,] | %6
[M:9/8] [D,A,][D,A,][D,B,] [C,=A,] [B,,B,]2- [B,,B,][C,A,][D,D] | %7
[M:4/4] [E,CE]>[E,CE] [F,B,=D][F,B,D] [E,CE]2 [E,B,_D]2 |[M:3/4] [A,,A,]6 |[M:1/4] [E,G,E][E,A,E] | %10
[M:4/4] z4 z2 D2 | z C z C [A,,A,]2 [C,A,][A,,A,] | [B,,F,]>[B,,F,] [B,,F,][B,,A,] [E,G,]E,E,A,, | %13
 z B, z A, E,D,C,B,, | [A,,A,]>[A,,A,] [A,,A,][A,,A,] [A,,A,]<[A,,A,] [B,,G,][C,A,] | %15
[M:9/8] [D,A,]2 [C,=A,]- [C,A,] [B,,B,]2- [B,,B,][_C,_A,][C,A,] | %16
[M:35/32] [C,A,][C,A,][B,,G,][A,,A,][D,F,D]/ [D,A,D]2- [D,A,D]/[K:treble](3:2:4F3/4-F/8E3/2-E/4 | %17
[M:7/8][K:bass] [E,A,-]A,/4 z/4 z/ D2- D/4 z/4 z/ z2 |] %18
V:3
 x8 | x8 | x8 | x8 | x8 | x8 |[M:9/8] x9 |[M:4/4] x8 |[M:3/4] x6 |[M:1/4] x2 | %10
[M:4/4] [E,B,E]>[E,B,E] [E,B,E][E,B,E] [E,B,E][E,G,D][E,G,][E,B,] | A,,2 A,,2 z4 | x8 | %13
 B,,2 B,,2 z4 | x8 |[M:9/8] x9 |[M:35/32] x7[K:treble] x7/4 | %17
[M:7/8][K:bass] E-[E,E-][E,-G,-E]/<[E,G,-]/ [E,-G,]/<E,/ [A,,E,]3 |] %18
V:4
 x8 | x8 | x8 | x8 | x8 | x8 |[M:9/8] x9 |[M:4/4] x8 |[M:3/4] x6 |[M:1/4] x2 |[M:4/4] x8 | x8 | %12
 x8 | [B,E]E[A,=D]D [G,E]2 [A,E][G,_DE] | x8 |[M:9/8] x9 |[M:35/32] x35/4 | %17
[M:7/8] z2 B2- B/4 z/4 z/ z2 |] %18
V:5
 x8 | x8 | x8 | x8 | x8 | x8 |[M:9/8] x9 |[M:4/4] x8 |[M:3/4] x6 |[M:1/4] x2 |[M:4/4] x8 | x8 | %12
 x8 | x8 | x8 |[M:9/8] x9 |[M:35/32] x35/4 |[M:7/8] z z z2 [CA]3 |] %18
V:6
 x8 | x8 | x8 | x8 | x8 | x8 |[M:9/8] x9 |[M:4/4] x8 |[M:3/4] x6 |[M:1/4] x2 |[M:4/4] x8 | x8 | %12
 x8 | x8 | x8 |[M:9/8] x9 |[M:35/32] x35/4 |[M:7/8] z A,-A,/4 z/4 z/ G,-G,/4 z/4 z/ z2 |] %18

